packages/foundations/assets/icons/functional/images/human/stroller_16.svg

<svg width="16" height="16" viewBox="0 0 16 16" fill="none" xmlns="http://www.w3.org/2000/svg">
<g clip-path="url(#clip0_185_1209)">
<path fill-rule="evenodd" clip-rule="evenodd" d="M5.63189 11.1985C6.51555 11.1985 7.23189 11.9148 7.23189 12.7985C7.23189 13.6821 6.51555 14.3985 5.63189 14.3985C4.74824 14.3985 4.03189 13.6821 4.03189 12.7985C4.03189 11.9148 4.74824 11.1985 5.63189 11.1985ZM10.4319 11.1985C11.3155 11.1985 12.0319 11.9148 12.0319 12.7985C12.0319 13.6821 11.3155 14.3985 10.4319 14.3985C9.54824 14.3985 8.83189 13.6821 8.83189 12.7985C8.83189 11.9148 9.54824 11.1985 10.4319 11.1985ZM9.59814 1.60648C11.9113 1.7605 13.6772 3.73502 13.5731 6.05098C13.5731 6.08812 13.5706 6.12467 13.5657 6.16046C13.5593 6.39747 13.5408 6.63912 13.4884 6.81534C13.3964 7.10184 12.7759 8.89848 12.6829 9.12448C12.3825 9.88613 11.6506 10.3899 10.8319 10.3985H5.05539C4.22216 10.3965 3.47834 9.87574 3.19139 9.09348L2.48592 6.70034C2.39058 6.45425 2.42275 6.17696 2.5719 5.95923C2.72106 5.7415 2.968 5.61134 3.23192 5.61134L4.15655 5.61056L3.73555 4.97648C3.6612 4.86504 3.53601 4.79822 3.40205 4.79848H3.22255C2.78072 4.79848 2.42255 4.4403 2.42255 3.99848C2.42255 3.55665 2.78072 3.19847 3.22255 3.19847H3.40205C4.07297 3.1976 4.69946 3.53385 5.06955 4.09348L6.07455 5.61056H7.79955L8.73864 2.18948C8.84291 1.81031 9.20729 1.56315 9.59814 1.60648ZM11.6548 7.20985L4.43189 7.21046L4.83565 8.48757C4.88785 8.68022 5.03393 8.81128 5.19967 8.81415H10.9377C11.1064 8.80127 11.2523 8.66518 11.3072 8.46933C11.3419 8.3623 11.4989 7.79124 11.6548 7.20985ZM10.0841 3.33298L9.45855 5.61056L11.9501 5.61031C11.7915 4.15282 10.847 3.56763 10.0841 3.33298Z" fill="#1A1C1F"/>
</g>
<defs>
<clipPath id="clip0_185_1209">
<rect width="16" height="16" fill="white"/>
</clipPath>
</defs>
</svg>

<svg xmlns="http://www.w3.org/2000/svg" width="16" height="16" fill="none"><g clip-path="url(#a)"><path fill="#1A1C1F" fill-rule="evenodd" d="M5.632 11.199a1.6 1.6 0 1 1 0 3.2 1.6 1.6 0 0 1 0-3.2m4.8 0a1.6 1.6 0 1 1 0 3.2 1.6 1.6 0 0 1 0-3.2m-.834-9.593a4.26 4.26 0 0 1 3.968 4.554c-.007.237-.025.48-.078.655a96 96 0 0 1-.805 2.31 2.01 2.01 0 0 1-1.851 1.274H5.055a1.99 1.99 0 0 1-1.864-1.306L2.486 6.7a.8.8 0 0 1 .746-1.089h.925l-.421-.635a.4.4 0 0 0-.334-.178h-.18a.8.8 0 0 1 0-1.6h.18c.671 0 1.297.336 1.668.895l1.005 1.518H7.8l.939-3.422a.8.8 0 0 1 .86-.583m2.057 5.604H4.432l.404 1.278c.052.192.198.323.364.326h5.738c.168-.013.314-.149.37-.345.034-.107.19-.678.347-1.26m-1.57-3.877-.626 2.278h2.491c-.159-1.458-1.103-2.043-1.866-2.278" clip-rule="evenodd"/></g><defs><clipPath id="a"><path fill="#fff" d="M0 0h16v16H0z"/></clipPath></defs></svg>
